usr/share/icons/biglinux-icons-material-dark/symbolic/status/microphone-sensitivity-muted-symbolic.svg

<svg width="16" height="16" version="1.1" xmlns="http://www.w3.org/2000/svg">
 <path d="m4.5 0a2.495 2.495 0 0 0-1.7012 0.67773l0.70312 0.70313c0.26492-0.23625 0.61352-0.38086 0.99805-0.38086 0.831 0 1.5 0.669 1.5 1.5v1.3789l1 1v-2.3789c0-1.385-1.115-2.5-2.5-2.5zm-2.2773 1.5156a2.495 2.495 0 0 0-0.22266 0.98438v6c0 1.385 1.115 2.5 2.5 2.5s2.5-1.115 2.5-2.5v-2.207l-1-1v3.207c0 0.831-0.669 1.5-1.5 1.5s-1.5-0.669-1.5-1.5v-6c0-0.065588 0.005586-0.13004 0.013672-0.19336l-0.79102-0.79102zm10.998 1.2891-0.35352 0.35352a7 7 0 0 0-1.998 5.5898l1.2637 1.2637a5.999 5.999 0 0 1 1.4414-6.1465l0.35352-0.35352-0.70703-0.70703zm2.123 2.1211-0.35547 0.35352a4 4 0 0 0 0 5.6563l0.35547 0.35352 0.70703-0.70703-0.35547-0.35352a2.999 2.999 0 0 1 0-4.2422l0.35547-0.35352-0.70703-0.70703zm-15.344 2.0742v1.5c0 2.321 1.748 4.1982 4 4.4492v2.0508h-2v1h5v-1h-2v-2.0508c2.252-0.251 4-2.1282 4-4.4492v-0.20703l-1-1v1.207c0 1.939-1.561 3.5-3.5 3.5s-3.5-1.561-3.5-3.5v-1.5h-1zm11.289 3.582a7 7 0 0 0 1.5781 2.4746l0.35352 0.35352 0.44727-0.44922-2.3789-2.3789z" fill="#dedede"/>
 <rect transform="rotate(45)" x=".31371" y="-.5" width="22" height="1" rx=".5" ry=".5" fill="#dedede" fill-rule="evenodd" stop-color="#000000" stroke-linecap="round" stroke-linejoin="round" stroke-width=".75748" style="paint-order:stroke fill markers"/>
</svg>

<svg xmlns="http://www.w3.org/2000/svg" width="16" height="16">
<path fill="#363636" d="M4.5 0a2.5 2.5 0 0 0-1.701.678l.703.703A1.497 1.497 0 0 1 6 2.5v1.378l1 1V2.5C7 1.115 5.885 0 4.5 0M2.223 1.516A2.5 2.5 0 0 0 2 2.5v6C2 9.885 3.115 11 4.5 11S7 9.885 7 8.5V6.293l-1-1V8.5c0 .831-.669 1.5-1.5 1.5S3 9.331 3 8.5v-6q.001-.099.014-.193zM13.22 2.805l-.354.353a7 7 0 0 0-1.998 5.59l1.264 1.264a6 6 0 0 1 1.441-6.147l.354-.353zm2.123 2.12-.356.354a4 4 0 0 0 0 5.657l.356.353.707-.707-.356-.353a3 3 0 0 1 0-4.243l.356-.353zM0 7v1.5c0 2.321 1.748 4.198 4 4.45V15H2v1h5v-1H5v-2.05c2.252-.252 4-2.129 4-4.45v-.207l-1-1V8.5C8 10.439 6.439 12 4.5 12S1 10.439 1 8.5V7zm11.289 3.582a7 7 0 0 0 1.578 2.475l.353.353.448-.45z"/>
<rect width="22" height="1" x=".314" y="-.5" fill="#363636" fill-rule="evenodd" rx=".5" ry=".5" style="paint-order:stroke fill markers" transform="rotate(45)"/>
</svg>
